X:11162
T:Morgan Magan
R:Air
C:O'Carolan
S:Tony Gordon, manuscript
M:4/4
L:1/8
K:G
D2|D2G2 G2AB|cBAG Bcd2|e2A2 A3G|GFEF D2EF|
G3A GFEF|G2FE D2G2|FGA2 A3G|F2EF D2d2|
G2B2 AGA2|G6B2|c3B ABc2|d4 e4|
d2B2 cBAG|AGFE D2EF|G2B2 AGAF|G6dc|
B2d2 d2ef|g2G2 Bcdf|g2G2 Bcd2|edcB A2c2|
BABc d2B2|e2c2 d2B2|c2A2 B2G2|F2D2 D3D|
E2C2 C3D|E2C2 C3E|F2D2 D2AG|FGEF D2Bc|
d2B2 edcB|cBAG AGFE|D2G2 AGAF|G8|]
